usr/share/icons/biglinux-icons-material-dark/16/actions/project-development-new-template.svg

<svg xmlns="http://www.w3.org/2000/svg" viewBox="0 0 16 16">
  <defs id="defs3051">
    <style type="text/css" id="current-color-scheme">
      .ColorScheme-Text {
        color:#dedede;
      }
      </style>
  </defs>
 <path 
     style="fill:currentColor;fill-opacity:1;stroke:none" 
     d="M 2 2 L 2 14 L 8 14 L 8 13 L 3 13 L 3 5 L 13 5 L 13 8 L 14 8 L 14 2 L 3 2 L 2 2 z M 11.001953 8.0019531 L 10.427734 9.6152344 L 8.8808594 8.8789062 L 9.6152344 10.425781 L 8.0019531 11 L 9.6152344 11.574219 L 8.8789062 13.121094 L 10.425781 12.386719 L 11 14 L 11.574219 12.386719 L 13.121094 13.121094 L 12.386719 11.574219 L 14 11 L 12.386719 10.427734 L 13.121094 8.8808594 L 11.574219 9.6152344 L 11.001953 8.0019531 z "
     class="ColorScheme-Text"/>
</svg>

<svg xmlns="http://www.w3.org/2000/svg" viewBox="0 0 16 16">
<defs id="defs3051">
<style id="current-color-scheme" type="text/css">
.ColorScheme-Text{color:#dedede}
</style>
</defs>
<path d="M2 2v12h6v-1H3V5h10v3h1V2zm9.002 6.002-.574 1.613L8.88 8.88l.734 1.547L8.002 11l1.613.574-.736 1.547 1.547-.734L11 14l.574-1.613 1.547.734-.734-1.547L14 11l-1.613-.572.734-1.547-1.547.734z" class="ColorScheme-Text" style="fill:currentColor;fill-opacity:1;stroke:none"/>
</svg>
